svg/train_car_hopper_covered.svg

<svg xmlns="http://www.w3.org/2000/svg" id="mdi-train-car-hopper-covered" viewBox="0 0 24 24"><path d="M23 9V7H1V9L2 10.33V15H1V17H2C2 18.11 2.9 19 4 19S6 18.11 6 17H10L11 18H13L14 17H18C18 18.11 18.9 19 20 19S22 18.11 22 17H23V15H22V10.33L23 9M4 15V13L5.5 15H4M5 10V9H19V10H5M20 15H18.5L20 13V15Z" /></svg>

<svg xmlns="http://www.w3.org/2000/svg" viewBox="0 0 24 24"><path d="M23 9V7H1v2l1 1.33V15H1v2h1a2 2 0 1 0 4 0h4l1 1h2l1-1h4a2 2 0 1 0 4 0h1v-2h-1v-4.67zM4 15v-2l1.5 2zm1-5V9h14v1zm15 5h-1.5l1.5-2z"/></svg>
